;FLAVOR:Marlin
;TIME:5092
;Filament used:3.01308m
;Layer height: 0.25
;MINX:67.857
;MINY:77.483
;MINZ:0.2
;MAXX:131.585
;MAXY:120.708
;MAXZ:17.45
                             
;Creality Print GCode Generated by CXEngineDEV
;Generated Time:2022-06-30 15:03:09
;----------Machine Config--------------
;Machine Name:Ender-3 V2
;Machine Height:200
;Machine Width:235
;Machine Depth:235
;Material name:Castable
;Number of Extruders:1
;ExtruderParams[0] Nozzle Diameter1000
;----------Profile Config---------------
;Layer Height:0.25
;Wall Thickness:0.8
;Top/Bottom Thickness:1
;Out Wall Line Width:0.4
;Inner Wall Line Width:0.4
;Inital Layer Height:200
;Wall Line Count:2
;Infill Line Distance:2
;Infill Pattern:grid
;Infill Sparse Density:16
;Infill Wipe Distance:0
;Print Temperature:200
;Bed Temperature:60
;Support Enable:true
;Support Density:7.5
;Support Angle:1.0472
;Adhesion Type:none
;machine is belt:false
;machine belt offset:10
;machine belt offset Y:0
;Raft Base Line Spacing:1.6
;Wait Heatup Sync:true
;----------Shell Config----------------
;Outer Wall Wipe Distance:200
;Infill Before Walls:false
;Infill Overlap:0
;Fill Gaps Between Walls:everywhere
;Minimum Infill Area:1
;Top Surface Skin Layer:0
;Top Layers:3
;Z Seam Alignment:sharpest_corner
;Seam Corner Preference:z_seam_corner_inner
;Z Seam X:100
;Z Seam Y:100
;Horizontal Expansion:0
;Top/Bottom Pattern:zigzag
;Ironing Pattern:zigzag
;Vase Model:false
;----------Support Config----------------
;Support Type:everywhere
;Support Pattern:zigzag
;Support Infill Layer Thickness:0.25
;Minimum Support Area:10
;Enable Support Roof:false
;Support Roof Thickness:0.8
;Support Roof Pattern:lines
;Connect Support Lines:1
;Connect Support ZigZags:1
;Minimum Support X/Y Distance:0.2
;Support Line Distance:1.33
; ---------PrintSpeed & Travel----------
;Enable Print Cool:true
;Avoid Printed Parts Traveling:true
;Enable Retraction:true
;Retraction Distance:8
;Retraction Speed:60
;Retraction Prime Speed:60
;Maximum Retraction Count:100
;Minimum Extrusion Distance Window:1
;Z Hop When Retracted:false
;Z Hop Height:0.2
;Retract Before Outer Wall:true
;Print Speed:50
;Infill Speed:50

;Prime Tower Speed:60
;Travel Speed:100
;Initial Layer Speed:15
;Skirt/Brim Speed:25
;Combing Mode:off
; --------SpecialModel&Mesh Fixes--------
;Union Overlapping Volum:true
;Remove All Holes:false
;Maximum Travel Resolution:0.25
;Maximum Deviation:0.05
;Maximum Model Angle:0.872665
;IS Mold Print:false
;Make Overhang Printable:false
;Enable Coasting:false
;Coasting Volumes:0.06
;Coasting Speed:0.9
;Raft AirGap:0.25
;Layer0 ZOverLap:0.13
;---------------------End of Head--------------------------
M140 S60
M105
M104 S200
M105
M109 S200
M105
M190 S60
M82 ;absolute extrusion mode
M220 S100 ;Reset Feedrate
M221 S100 ;Reset Flowrate

G28 ;Home

G92 E0 ;Reset Extruder
G1 Z2.0 F3000 ;Move Z Axis up
G1 X10.1 Y20 Z0.28 F5000.0 ;Move to start position
G1 X10.1 Y145.0 Z0.28 F1500.0 E15 ;Draw the first line
G1 X10.4 Y145.0 Z0.28 F5000.0 ;Move to side a little
G1 X10.4 Y20 Z0.28 F1500.0 E30 ;Draw the second line
G92 E0  ;Reset Extruder
G1 E-1.0000 F1800 ;Retract a bit
G1 Z2.0 F3000 ;Move Z Axis up
G1 E0.0000 F1800 

G92 E0
G92 E0
G1 F3600 E-8

;LAYER_COUNT:70

;LAYER:0
M107
G0 F1500 X77.14 Y79.533 Z0.2
;TYPE:SUPPORT
G1 F3600 E0
G1 F900 X77.331 Y79.504 E0.00565
G1 X77.931 Y79.43 E0.02335
G1 X78.779 Y79.397 E0.04819
G1 X79.8 Y79.397 E0.07807
G1 X79.8 Y78.961 E0.09083
G1 X82.46 Y78.961 E0.16869
G1 X82.46 Y79.397 E0.18145
G1 X85.12 Y79.397 E0.2593
G1 X85.12 Y78.961 E0.27207
G1 X87.78 Y78.961 E0.34992
G1 X87.78 Y79.397 E0.36268
G1 X90.44 Y79.397 E0.44054
G1 X90.44 Y78.961 E0.4533
G1 X93.1 Y78.961 E0.53115
G1 X93.412 Y78.961 E0.54029
G1 X93.999 Y78.719 E0.55887
G1 X94.99 Y77.727 E0.59991
G1 X95.544 Y79.062 E0.64222
G1 X93.921 Y79.063 E0.68972
G1 X93.588 Y79.397 E0.70352
G1 X93.1 Y79.397 E0.71781
G1 X93.1 Y78.961 E0.73057
;;retract;;
G1 F3600 E-7.26943
G0 F1500 X93.1 Y94.931
G1 F3600 E0.73057
G1 F900 X90.44 Y94.931 E0.80842
G1 X90.44 Y95.367 E0.82118
G1 X87.78 Y95.367 E0.89904
G1 X87.78 Y94.931 E0.9118
G1 X85.12 Y94.931 E0.98966
G1 X85.12 Y95.367 E1.00242
G1 X82.46 Y95.367 E1.08027
G1 X82.46 Y94.931 E1.09303
G1 X79.8 Y94.931 E1.17089
G1 X79.8 Y95.367 E1.18365
G1 X78.784 Y95.367 E1.21339
G1 X77.986 Y95.348 E1.23675
G1 X77.195 Y95.294 E1.25996
G1 X77.14 Y95.286 E1.26158
G1 X77.14 Y94.793 E1.27601
G1 X76.992 Y94.773 E1.28038
G1 X76.134 Y94.525 E1.30652
G1 X75.452 Y94.128 E1.32962
G1 X74.908 Y93.24 E1.3601
G1 X74.907 Y87.765 E1.52035
G1 X75.458 Y87.215 E1.54314
G1 X74.908 Y86.665 E1.5659
G1 X74.908 Y81.13 E1.72791
G1 X75.364 Y80.252 E1.75686
G1 X76.16 Y79.79 E1.7838
G1 X76.993 Y79.555 E1.80913
G1 X77.14 Y79.533 E1.81348
G1 X77.14 Y79.041 E1.82788
G1 X76.091 Y79.173 E1.85883
G1 X75.683 Y78.99 E1.87192
G1 X74.48 Y79.367 E1.90882
G1 X74.48 Y94.961 E2.36524
G1 X74.366 Y94.926 E2.36873
G1 X73.779 Y94.667 E2.3875
G1 X73.642 Y94.586 E2.39216
G1 X73.238 Y94.305 E2.40657
G1 X73.035 Y94.1 E2.41501
G1 X72.741 Y93.666 E2.43035
G1 X72.616 Y93.332 E2.44079
G1 X72.553 Y92.864 E2.45461
G1 X72.415 Y90.968 E2.51025
G1 X71.82 Y90.415 E2.53403
G1 X71.778 Y90.376 E2.53571
G1 X70.62 Y90.376 E2.5696
G1 X69.685 Y89.441 E2.6083
G1 X69.685 Y84.887 E2.74159
G1 X70.62 Y83.952 E2.78029
G1 X71.82 Y83.952 E2.81542
G1 X71.82 Y90.415 E3.00458
;;retract;;
G1 F3600 E-4.99542
G0 F1500 X93.1 Y94.931
G1 F3600 E3.00458
G1 F900 X93.608 Y94.931 E3.01945
G1 X93.922 Y95.246 E3.03247
G1 X95.575 Y95.247 E3.08085
G1 X95.464 Y95.514 E3.08931
G1 X93.922 Y95.514 E3.13445
G1 X93.776 Y95.367 E3.14051
G1 X93.1 Y95.367 E3.1603
G1 X93.1 Y94.931 E3.17306
;;retract;;
G1 F3600 E-4.82694
G0 F1500 X71.017 Y107.518
G1 F3600 E3.17306
G1 F900 X70.676 Y107.521 E3.18304
G1 X70.37 Y107.768 E3.19455
G1 X69.161 Y107.808 E3.22995
G0 F1500 X69.16 Y107.809
G1 F900 X68.262 Y108.739 E3.26779
G1 X68.261 Y112.877 E3.38891
G1 X69.16 Y113.806 E3.42675
G0 F1500 X69.161 Y113.808
G1 F900 X70.369 Y113.848 E3.46212
G1 X70.677 Y114.094 E3.47366
G1 X71.019 Y114.097 E3.48367
G1 X71.016 Y111.425 E3.56188
G1 X71.576 Y110.858 E3.5852
G1 X71.015 Y110.298 E3.6084
G1 X71.017 Y107.518 E3.68977
;;retract;;
G1 F3600 E-4.31023
G0 F1500 X126.909 Y107.26
G1 F3600 E3.68977
G1 F900 X126.909 Y110.297 E3.77866
G1 X126.35 Y110.857 E3.80182
G1 X126.91 Y111.417 E3.825
G1 X126.908 Y114.353 E3.91093
G1 X127.567 Y113.857 E3.93507
G1 X127.68 Y113.854 E3.93838
G1 X128.957 Y113.81 E3.97578
G1 X129.856 Y112.879 E4.01366
G1 X129.857 Y108.737 E4.13489
G1 X128.954 Y107.806 E4.17285
G1 X127.68 Y107.763 E4.21016
G1 X127.563 Y107.759 E4.21359
G1 X126.909 Y107.26 E4.23767
G0 F1500 X127.68 Y107.763
G1 F900 X127.68 Y113.854 E4.41594
;;retract;;
G1 F3600 E-3.58406
G0 F1500 X69.16 Y113.806
G1 F3600 E4.41594
G1 F900 X69.16 Y107.809 E4.59147
;;retract;;
G1 F3600 E-3.40853
G0 F1500 X122.36 Y94.921
G1 F3600 E4.59147
G1 F900 X121.892 Y94.942 E4.60518
G1 X120.038 Y94.942 E4.65945
G1 X120.052 Y95.371 E4.67201
G1 X121.889 Y95.371 E4.72578
G1 X122.36 Y95.36 E4.73956
G1 X122.36 Y94.921 E4.75241
G1 X122.757 Y94.905 E4.76404
G1 X123.659 Y94.789 E4.79066
G1 X124.61 Y94.522 E4.81957
G1 X125.02 Y94.261 E4.8338
G1 X125.358 Y94.047 E4.84551
G1 X125.805 Y93.197 E4.87362
G1 X125.805 Y87.764 E5.03263
G1 X125.254 Y87.214 E5.05542
G1 X125.805 Y86.664 E5.07821
G1 X125.805 Y81.132 E5.24012
G1 X125.364 Y80.29 E5.26794
G1 X125.02 Y80.064 E5.27999
G1 X125.02 Y79.036 E5.31008
G1 X124.656 Y79.185 E5.32159
G1 X123.476 Y79.03 E5.35642
G1 X122.69 Y78.975 E5.37949
G1 X122.36 Y78.968 E5.38915
G1 X121.889 Y78.957 E5.40294
G1 X120.054 Y78.957 E5.45664
G1 X120.04 Y79.386 E5.46921
G1 X121.891 Y79.386 E5.52338
G1 X122.36 Y79.405 E5.53712
G1 X122.36 Y78.968 E5.54991
;;retract;;
G1 F3600 E-2.45009
G0 F1500 X130.34 Y84.039
G1 F3600 E5.54991
G1 F900 X130.25 Y83.949 E5.55364
G1 X128.758 Y83.949 E5.59731
G1 X128.125 Y83.316 E5.62351
G1 X128.125 Y81.394 E5.67976
G1 X128.097 Y81.157 E5.68675
G1 X128.018 Y80.86 E5.69574
G1 X127.9 Y80.61 E5.70384
G1 X127.68 Y80.292 E5.71515
G1 X127.68 Y94.036 E6.11742
G1 X127.642 Y94.088 E6.11931
G1 X127.419 Y94.304 E6.1284
G1 X127.327 Y94.382 E6.13193
G1 X127.006 Y94.6 E6.14328
G1 X126.899 Y94.664 E6.14693
G1 X126.324 Y94.918 E6.16533
G1 X125.147 Y95.292 E6.20148
G1 X125.02 Y95.245 E6.20544
G1 X125.02 Y94.261 E6.23424
;;retract;;
G1 F3600 E-1.76576
G0 F1500 X130.34 Y84.039
G1 F3600 E6.23424
G1 F900 X131.185 Y84.884 E6.26922
G1 X131.185 Y89.444 E6.40269
G1 X130.34 Y90.289 E6.43766
G1 X130.34 Y84.039 E6.62059
;;retract;;
G1 F3600 E-1.37941
;MESH:
G0 F1500 X105.685 Y93.249
;TYPE:WALL-INNER
G1 F3600 E6.62059
G1 F900 X94.985 Y93.246 E7.01207
G1 X94.985 Y92.931 E7.02359
G1 X78.829 Y92.931 E7.61468
G1 X78.082 Y92.902 E7.64203
G1 X77.408 Y92.813 E7.6669
G1 X76.936 Y92.679 E7.68485
G1 X76.908 Y92.663 E7.68603
G1 X76.907 Y89.027 E7.81906
G1 X76.907 Y88.828 E7.82634
G1 X77.106 Y88.828 E7.83105
G1 X123.606 Y88.827 E9.5323
G1 X123.805 Y88.827 E9.53958
G1 X123.805 Y89.026 E9.5443
G1 X123.805 Y92.672 E9.67769
G1 X123.266 Y92.825 E9.69819
G1 X122.592 Y92.911 E9.72305
G1 X121.84 Y92.942 E9.75058
G1 X105.685 Y92.942 E10.34163
G1 X105.685 Y93.249 E10.35286
G0 F1500 X106.085 Y93.342
;TYPE:WALL-OUTER
G1 F900 X106.085 Y93.649 E10.3641
G1 X94.585 Y93.646 E10.78484
G1 X94.585 Y93.331 E10.79636
G1 X78.813 Y93.331 E11.3734
G1 X78.047 Y93.301 E11.40144
G1 X77.328 Y93.206 E11.42798
G1 X76.778 Y93.05 E11.44889
G1 X76.582 Y92.936 E11.45719
G1 X76.508 Y92.819 E11.46226
G1 X76.507 Y88.628 E11.61559
G1 X76.507 Y88.428 E11.6229
G1 X76.707 Y88.428 E11.62764
G1 X124.005 Y88.427 E13.35809
G1 X124.205 Y88.427 E13.36541
G1 X124.205 Y88.627 E13.37015
G1 X124.205 Y92.828 E13.52385
G1 X124.16 Y92.914 E13.5274
G1 X124 Y93.024 E13.5345
G1 X123.956 Y93.045 E13.53629
G1 X123.345 Y93.218 E13.55952
G1 X122.625 Y93.31 E13.58608
G1 X121.857 Y93.342 E13.6142
G1 X106.085 Y93.342 E14.19124
G0 F1500 X106.085 Y93.542
G0 X105.645 Y93.209
;;retract;;
G1 F3600 E6.19124
G0 F1500 X123.624 Y89.117
;TYPE:SKIN
G1 F3600 E14.19124
G1 F900 X123.513 Y89.007 E14.19695
G0 F1500 X122.948 Y89.007
G1 F900 X123.624 Y89.683 E14.23193
G0 F1500 X123.624 Y90.248
G1 F900 X122.382 Y89.007 E14.29617
G0 F1500 X121.816 Y89.007
G1 F900 X123.624 Y90.814 E14.38969
G0 F1500 X123.624 Y91.38
G1 F900 X121.251 Y89.007 E14.51247
G0 F1500 X120.685 Y89.007
G1 F900 X123.624 Y91.945 E14.66451
G0 F1500 X123.624 Y92.511
G1 F900 X120.119 Y89.007 E14.84583
G0 F1500 X119.554 Y89.007
G1 F900 X123.199 Y92.652 E15.03443
G0 F1500 X122.697 Y92.715
G1 F900 X118.988 Y89.007 E15.22631
G0 F1500 X118.422 Y89.007
G1 F900 X122.163 Y92.747 E15.41984
G0 F1500 X121.611 Y92.761
G1 F900 X117.857 Y89.007 E15.61408
G0 F1500 X117.291 Y89.007
G1 F900 X121.046 Y92.761 E15.80834
G0 F1500 X120.48 Y92.761
G1 F900 X116.725 Y89.007 E16.0026
G0 F1500 X116.159 Y89.007
G1 F900 X119.914 Y92.761 E16.19686
G0 F1500 X119.349 Y92.761
G1 F900 X115.594 Y89.007 E16.39112
G0 F1500 X115.028 Y89.007
G1 F900 X118.783 Y92.761 E16.58538
G0 F1500 X118.217 Y92.761
G1 F900 X114.462 Y89.007 E16.77964
G0 F1500 X113.897 Y89.007
G1 F900 X117.651 Y92.761 E16.97387
G0 F1500 X117.086 Y92.761
G1 F900 X113.331 Y89.007 E17.16813
G0 F1500 X112.765 Y89.007
G1 F900 X116.52 Y92.761 E17.36239
G0 F1500 X115.954 Y92.761
G1 F900 X112.2 Y89.007 E17.55663
G0 F1500 X111.634 Y89.007
G1 F900 X115.389 Y92.761 E17.75089
G0 F1500 X114.823 Y92.761
G1 F900 X111.068 Y89.007 E17.94515
G0 F1500 X110.503 Y89.007
G1 F900 X114.257 Y92.761 E18.13938
G0 F1500 X113.692 Y92.761
G1 F900 X109.937 Y89.007 E18.33364
G0 F1500 X109.371 Y89.007
G1 F900 X113.126 Y92.761 E18.5279
G0 F1500 X112.56 Y92.761
G1 F900 X108.806 Y89.007 E18.72214
G0 F1500 X108.24 Y89.007
G1 F900 X111.995 Y92.761 E18.9164
G0 F1500 X111.429 Y92.761
G1 F900 X107.674 Y89.007 E19.11066
G0 F1500 X107.108 Y89.007
G1 F900 X110.863 Y92.761 E19.30492
G0 F1500 X110.298 Y92.761
G1 F900 X106.543 Y89.007 E19.49918
G0 F1500 X105.977 Y89.007
G1 F900 X109.732 Y92.761 E19.69344
G0 F1500 X109.166 Y92.761
G1 F900 X105.411 Y89.007 E19.8877
G0 F1500 X104.846 Y89.007
G1 F900 X108.6 Y92.761 E20.08193
G0 F1500 X108.035 Y92.761
G1 F900 X104.28 Y89.007 E20.27619
G0 F1500 X103.714 Y89.007
G1 F900 X107.469 Y92.761 E20.47045
G0 F1500 X106.903 Y92.761
G1 F900 X103.149 Y89.007 E20.66469
G0 F1500 X102.583 Y89.007
G1 F900 X106.338 Y92.761 E20.85895
G0 F1500 X105.772 Y92.761
G1 F900 X102.017 Y89.007 E21.05321
G0 F1500 X101.452 Y89.007
G1 F900 X105.504 Y93.059 E21.26286
G0 F1500 X104.948 Y93.068
G1 F900 X100.886 Y89.007 E21.473
G0 F1500 X100.32 Y89.007
G1 F900 X104.382 Y93.068 E21.68315
G0 F1500 X103.816 Y93.068
G1 F900 X99.755 Y89.007 E21.89327
G0 F1500 X99.189 Y89.007
G1 F900 X103.25 Y93.067 E22.10336
G0 F1500 X102.684 Y93.067
G1 F900 X98.623 Y89.007 E22.31345
G0 F1500 X98.058 Y89.007
G1 F900 X102.118 Y93.067 E22.52352
G0 F1500 X101.553 Y93.067
G1 F900 X97.492 Y89.007 E22.73361
G0 F1500 X96.926 Y89.007
G1 F900 X100.986 Y93.067 E22.94368
G0 F1500 X100.421 Y93.067
G1 F900 X96.36 Y89.007 E23.15377
G0 F1500 X95.795 Y89.007
G1 F900 X99.855 Y93.067 E23.36384
G0 F1500 X99.289 Y93.066
G1 F900 X95.229 Y89.007 E23.57388
G0 F1500 X94.663 Y89.007
G1 F900 X98.723 Y93.066 E23.78392
G0 F1500 X98.157 Y93.066
G1 F900 X94.098 Y89.007 E23.99394
G0 F1500 X93.532 Y89.007
G1 F900 X97.592 Y93.066 E24.20398
G0 F1500 X97.025 Y93.065
G1 F900 X92.966 Y89.007 E24.41397
G0 F1500 X92.401 Y89.007
G1 F900 X96.459 Y93.065 E24.62393
G0 F1500 X95.894 Y93.065
G1 F900 X91.835 Y89.007 E24.83392
G0 F1500 X91.269 Y89.007
G1 F900 X95.013 Y92.75 E25.02761
G0 F1500 X95.163 Y92.901
G1 F900 X95.328 Y93.065 E25.03612
G0 F1500 X94.447 Y92.75
G1 F900 X90.704 Y89.007 E25.22979
G0 F1500 X90.138 Y89.007
G1 F900 X93.881 Y92.75 E25.42345
G0 F1500 X93.316 Y92.75
G1 F900 X89.572 Y89.007 E25.61714
G0 F1500 X89.007 Y89.007
G1 F900 X92.75 Y92.75 E25.81081
G0 F1500 X92.184 Y92.75
G1 F900 X88.441 Y89.007 E26.00447
G0 F1500 X87.875 Y89.007
G1 F900 X91.619 Y92.75 E26.19817
G0 F1500 X91.053 Y92.75
G1 F900 X87.31 Y89.007 E26.39183
G0 F1500 X86.744 Y89.007
G1 F900 X90.487 Y92.75 E26.5855
G0 F1500 X89.922 Y92.75
G1 F900 X86.178 Y89.007 E26.77919
G0 F1500 X85.612 Y89.007
G1 F900 X89.356 Y92.75 E26.97288
G0 F1500 X88.79 Y92.75
G1 F900 X85.047 Y89.007 E27.16654
G0 F1500 X84.481 Y89.007
G1 F900 X88.225 Y92.75 E27.36023
G0 F1500 X87.659 Y92.75
G1 F900 X83.915 Y89.007 E27.55392
G0 F1500 X83.35 Y89.007
G1 F900 X87.093 Y92.75 E27.74759
G0 F1500 X86.527 Y92.75
G1 F900 X82.784 Y89.007 E27.94126
G0 F1500 X82.218 Y89.007
G1 F900 X85.962 Y92.75 E28.13495
G0 F1500 X85.396 Y92.75
G1 F900 X81.653 Y89.007 E28.32861
G0 F1500 X81.087 Y89.007
G1 F900 X84.83 Y92.75 E28.52228
G0 F1500 X84.265 Y92.75
G1 F900 X80.521 Y89.007 E28.71597
G0 F1500 X79.956 Y89.007
G1 F900 X83.699 Y92.75 E28.90963
G0 F1500 X83.133 Y92.75
G1 F900 X79.39 Y89.007 E29.1033
G0 F1500 X78.824 Y89.007
G1 F900 X82.568 Y92.75 E29.29699
G0 F1500 X82.002 Y92.75
G1 F900 X78.259 Y89.007 E29.49065
G0 F1500 X77.693 Y89.007
G1 F900 X81.436 Y92.75 E29.68432
G0 F1500 X80.871 Y92.75
G1 F900 X77.127 Y89.007 E29.87801
G0 F1500 X77.086 Y89.531
G1 F900 X80.305 Y92.75 E30.04456
G0 F1500 X79.739 Y92.75
G1 F900 X77.086 Y90.097 E30.18183
G0 F1500 X77.086 Y90.663
G1 F900 X79.174 Y92.75 E30.28984
G0 F1500 X78.598 Y92.74
G1 F900 X77.087 Y91.229 E30.36802
G0 F1500 X77.087 Y91.795
G1 F900 X78.001 Y92.709 E30.41531
G0 F1500 X77.329 Y92.603
G1 F900 X77.087 Y92.36 E30.42786
;;retract;;
G1 F3600 E22.42786
G0 F1500 X94.985 Y81.063
;TYPE:WALL-INNER
G1 F3600 E30.42786
G1 F900 X105.685 Y81.057 E30.81933
G1 X105.685 Y81.386 E30.83137
G1 X121.841 Y81.386 E31.42245
G1 X122.592 Y81.416 E31.44995
G1 X123.266 Y81.503 E31.47481
G1 X123.805 Y81.659 E31.49534
G1 X123.805 Y85.601 E31.63957
G1 X77.107 Y85.602 E33.34807
G1 X76.908 Y85.602 E33.35535
G1 X76.908 Y85.403 E33.36006
G1 X76.908 Y81.667 E33.49674
G1 X76.938 Y81.65 E33.498
G1 X77.416 Y81.514 E33.51619
G1 X77.599 Y81.485 E33.52297
G1 X78.082 Y81.428 E33.54076
G1 X78.829 Y81.397 E33.56811
G1 X94.985 Y81.397 E34.1592
G1 X94.985 Y81.063 E34.17142
G0 F1500 X94.585 Y80.997
;TYPE:WALL-OUTER
G1 F900 X94.585 Y80.663 E34.18364
G1 X106.085 Y80.657 E34.60438
G1 X106.085 Y80.986 E34.61642
